X: 11226
T: Dust
R: three-two
M: 3/2
K: Edorian
E2 B2 e2 dE {A}GABE|{G}A2 ~A2AG E2 {B}A2 AB|E2 B2 e2 dE GA{c}BE|{B}AEcB AG E2 {D}E2 (3cBA|
E2 B2 e2 dE {A}GABE|A2{g}a2 {g}a2 {b}agab {f}g2|E2 B2 e2 dE GA{c}BE|{B}AE cBAG E2 {D}E2 z2|
~e2 g2 B2 (3cde {b}age2|~B2 eBAB {a}b2 {ab}ag e2|~e2 g2 B2 (3cde {b}age2|{c}B2 eB (3age dB {d}e4|
~e2 g2 B2 (3Bde {b}age2|~B2 eBAB {a}b2 {ab}ag e2|[M:2/2] {a}b2 {a}b2 (3age d B|e2 {d}e2 (3cBA G2|
G{B}A EA (3ccc Ac|[M:3/2]ecgc (ga3a4):|

